svgs/sharp-regular/laptop-file.svg

<svg xmlns="http://www.w3.org/2000/svg" viewBox="0 0 640 512"><!--! Font Awesome Pro 6.6.0 by @fontawesome - https://fontawesome.com License - https://fontawesome.com/license (Commercial License) Copyright 2024 Fonticons, Inc. --><path d="M464 48L112 48l0 272 208 0 0 64L32 384 0 352l0-32 64 0L64 48 64 0l48 0L464 0l48 0 0 48 0 48-48 0 0-48zM400 464l192 0 0-208-80 0 0-80-112 0 0 288zM544 128l96 96 0 240 0 48-48 0-192 0-48 0 0-48 0-288 0-48 48 0 144 0z"/></svg>

<svg xmlns="http://www.w3.org/2000/svg" viewBox="0 0 640 512"><!--! Font Awesome Pro 6.5.2 by @fontawesome - https://fontawesome.com License - https://fontawesome.com/license (Commercial License) Copyright 2024 Fonticons, Inc. --><path d="M464 48H112V320H320v64H32L0 352V320H64V48 0h48H464h48V48 96H464V48zM400 464H592V256H512V176H400V464zM544 128l96 96V464v48H592 400 352V464 176 128h48H544z"/></svg>
